images/50619309.svg

<?xml version="1.0" encoding="UTF-8"?>
<svg xmlns="http://www.w3.org/2000/svg" xmlns:xlink="http://www.w3.org/1999/xlink" width="300pt" height="300pt" viewBox="0 0 300 300" version="1.1">
<defs>
<g>
<symbol overflow="visible" id="glyph0-0">
<path style="stroke:none;" d="M 0.546875 1.9375 L 0.546875 -7.75 L 6.046875 -7.75 L 6.046875 1.9375 Z M 1.171875 1.328125 L 5.4375 1.328125 L 5.4375 -7.140625 L 1.171875 -7.140625 Z M 1.171875 1.328125 "/>
</symbol>
<symbol overflow="visible" id="glyph0-1">
<path style="stroke:none;" d="M 4.328125 -7.28125 C 3.546875 -7.28125 2.921875 -6.984375 2.453125 -6.390625 C 1.992188 -5.804688 1.765625 -5.007812 1.765625 -4 C 1.765625 -2.988281 1.992188 -2.1875 2.453125 -1.59375 C 2.921875 -1.007812 3.546875 -0.71875 4.328125 -0.71875 C 5.117188 -0.71875 5.742188 -1.007812 6.203125 -1.59375 C 6.660156 -2.1875 6.890625 -2.988281 6.890625 -4 C 6.890625 -5.007812 6.660156 -5.804688 6.203125 -6.390625 C 5.742188 -6.984375 5.117188 -7.28125 4.328125 -7.28125 Z M 4.328125 -8.171875 C 5.453125 -8.171875 6.351562 -7.789062 7.03125 -7.03125 C 7.707031 -6.28125 8.046875 -5.269531 8.046875 -4 C 8.046875 -2.738281 7.707031 -1.726562 7.03125 -0.96875 C 6.351562 -0.21875 5.453125 0.15625 4.328125 0.15625 C 3.203125 0.15625 2.300781 -0.21875 1.625 -0.96875 C 0.957031 -1.71875 0.625 -2.726562 0.625 -4 C 0.625 -5.269531 0.957031 -6.28125 1.625 -7.03125 C 2.300781 -7.789062 3.203125 -8.171875 4.328125 -8.171875 Z M 4.328125 -8.171875 "/>
</symbol>
<symbol overflow="visible" id="glyph0-2">
<path style="stroke:none;" d="M 1.078125 -8.015625 L 2.171875 -8.015625 L 2.171875 -4.734375 L 6.109375 -4.734375 L 6.109375 -8.015625 L 7.1875 -8.015625 L 7.1875 0 L 6.109375 0 L 6.109375 -3.8125 L 2.171875 -3.8125 L 2.171875 0 L 1.078125 0 Z M 1.078125 -8.015625 "/>
</symbol>
</g>
</defs>
<g id="surface10261">
<rect x="0" y="0" width="300" height="300" style="fill:rgb(100%,100%,100%);fill-opacity:1;stroke:none;"/>
<path style="fill:none;stroke-width:1.2;stroke-linecap:butt;stroke-linejoin:miter;stroke:rgb(100%,0%,0%);stroke-opacity:1;stroke-miterlimit:10;" d="M 150.285156 193.722656 L 137.945312 197.957031 "/>
<path style="fill:none;stroke-width:1.2;stroke-linecap:butt;stroke-linejoin:miter;stroke:rgb(0%,0%,0%);stroke-opacity:1;stroke-miterlimit:10;" d="M 137.945312 197.957031 L 125.601562 202.191406 "/>
<path style="fill:none;stroke-width:1.2;stroke-linecap:butt;stroke-linejoin:miter;stroke:rgb(0%,0%,0%);stroke-opacity:1;stroke-miterlimit:10;" d="M 168.851562 175.378906 L 159.570312 184.550781 "/>
<path style="fill:none;stroke-width:1.2;stroke-linecap:butt;stroke-linejoin:miter;stroke:rgb(100%,0%,0%);stroke-opacity:1;stroke-miterlimit:10;" d="M 159.570312 184.550781 L 150.285156 193.722656 "/>
<path style=" stroke:none;fill-rule:nonzero;fill:rgb(100%,100%,100%);fill-opacity:1;" d="M 146.285156 187.222656 L 155.285156 187.222656 L 155.285156 200.222656 L 146.285156 200.222656 Z M 146.285156 187.222656 "/>
<g style="fill:rgb(100%,0%,0%);fill-opacity:1;">
  <use xlink:href="#glyph0-1" x="146.285156" y="197.124023"/>
</g>
<path style="fill:none;stroke-width:1.2;stroke-linecap:butt;stroke-linejoin:miter;stroke:rgb(0%,0%,0%);stroke-opacity:1;stroke-miterlimit:10;" d="M 125.601562 202.191406 L 99.6875 199.109375 "/>
<path style=" stroke:none;fill-rule:nonzero;fill:rgb(0%,0%,0%);fill-opacity:1;" d="M 125.601562 202.191406 L 123.785156 228.628906 L 132.945312 227.652344 Z M 125.601562 202.191406 "/>
<path style="fill:none;stroke-width:1.2;stroke-linecap:butt;stroke-linejoin:miter;stroke:rgb(0%,0%,0%);stroke-opacity:1;stroke-miterlimit:10;" d="M 99.6875 199.109375 L 77.675781 185.089844 "/>
<path style="fill:none;stroke-width:1.2;stroke-linecap:butt;stroke-linejoin:miter;stroke:rgb(0%,0%,0%);stroke-opacity:1;stroke-miterlimit:10;" d="M 77.675781 185.089844 L 63.929688 162.910156 "/>
<path style="fill:none;stroke-width:1.2;stroke-linecap:butt;stroke-linejoin:miter;stroke:rgb(0%,0%,0%);stroke-opacity:1;stroke-miterlimit:10;" d="M 81.519531 179.636719 L 70.523438 161.894531 "/>
<path style="fill:none;stroke-width:1.2;stroke-linecap:butt;stroke-linejoin:miter;stroke:rgb(0%,0%,0%);stroke-opacity:1;stroke-miterlimit:10;" d="M 63.929688 162.910156 L 61.164062 136.960938 "/>
<path style="fill:none;stroke-width:1.2;stroke-linecap:butt;stroke-linejoin:miter;stroke:rgb(0%,0%,0%);stroke-opacity:1;stroke-miterlimit:10;" d="M 61.527344 133.910156 L 48.570312 132.371094 "/>
<path style="fill:none;stroke-width:1.2;stroke-linecap:butt;stroke-linejoin:miter;stroke:rgb(100%,0%,0%);stroke-opacity:1;stroke-miterlimit:10;" d="M 48.570312 132.371094 L 35.613281 130.832031 "/>
<path style="fill:none;stroke-width:1.2;stroke-linecap:butt;stroke-linejoin:miter;stroke:rgb(0%,0%,0%);stroke-opacity:1;stroke-miterlimit:10;" d="M 60.800781 140.007812 L 47.84375 138.46875 "/>
<path style="fill:none;stroke-width:1.2;stroke-linecap:butt;stroke-linejoin:miter;stroke:rgb(100%,0%,0%);stroke-opacity:1;stroke-miterlimit:10;" d="M 47.84375 138.46875 L 34.886719 136.929688 "/>
<path style="fill:none;stroke-width:1.2;stroke-linecap:butt;stroke-linejoin:miter;stroke:rgb(0%,0%,0%);stroke-opacity:1;stroke-miterlimit:10;" d="M 61.164062 136.960938 L 69.933594 112.382812 "/>
<path style=" stroke:none;fill-rule:nonzero;fill:rgb(100%,100%,100%);fill-opacity:1;" d="M 26.25 127.378906 L 35.25 127.378906 L 35.25 140.378906 L 26.25 140.378906 Z M 26.25 127.378906 "/>
<g style="fill:rgb(100%,0%,0%);fill-opacity:1;">
  <use xlink:href="#glyph0-1" x="26.25" y="137.280273"/>
</g>
<path style="fill:none;stroke-width:1.2;stroke-linecap:butt;stroke-linejoin:miter;stroke:rgb(0%,0%,0%);stroke-opacity:1;stroke-miterlimit:10;" d="M 69.933594 112.382812 L 88.5 94.042969 "/>
<path style=" stroke:none;fill-rule:nonzero;fill:rgb(0%,0%,0%);fill-opacity:1;" d="M 88.5 94.042969 L 78.664062 69.433594 L 70.835938 74.285156 Z M 88.5 94.042969 "/>
<path style="fill:none;stroke-width:1.2;stroke-linecap:butt;stroke-linejoin:miter;stroke:rgb(0%,0%,0%);stroke-opacity:1;stroke-miterlimit:10;" d="M 88.5 94.042969 L 113.183594 85.574219 "/>
<path style=" stroke:none;fill-rule:nonzero;fill:rgb(100%,100%,100%);fill-opacity:1;" d="M 57.75 65.359375 L 74.75 65.359375 L 74.75 78.359375 L 57.75 78.359375 Z M 57.75 65.359375 "/>
<g style="fill:rgb(100%,0%,0%);fill-opacity:1;">
  <use xlink:href="#glyph0-2" x="57.75" y="75.260742"/>
  <use xlink:href="#glyph0-1" x="65.774414" y="75.260742"/>
</g>
<path style="fill:none;stroke-width:1.2;stroke-linecap:butt;stroke-linejoin:miter;stroke:rgb(0%,0%,0%);stroke-opacity:1;stroke-miterlimit:10;" d="M 113.183594 85.574219 L 139.097656 88.652344 "/>
<path style="fill:none;stroke-width:1.2;stroke-linecap:butt;stroke-linejoin:miter;stroke:rgb(0%,0%,0%);stroke-opacity:1;stroke-miterlimit:10;" d="M 139.097656 88.652344 L 161.109375 102.671875 "/>
<path style="fill:none;stroke-width:1.2;stroke-linecap:butt;stroke-linejoin:miter;stroke:rgb(0%,0%,0%);stroke-opacity:1;stroke-miterlimit:10;" d="M 161.109375 102.671875 L 174.855469 124.851562 "/>
<path style="fill:none;stroke-width:1.2;stroke-linecap:butt;stroke-linejoin:miter;stroke:rgb(0%,0%,0%);stroke-opacity:1;stroke-miterlimit:10;" d="M 174.855469 124.851562 L 177.621094 150.800781 "/>
<path style="fill:none;stroke-width:1.2;stroke-linecap:butt;stroke-linejoin:miter;stroke:rgb(0%,0%,0%);stroke-opacity:1;stroke-miterlimit:10;" d="M 181.238281 126.796875 L 183.449219 147.554688 "/>
<path style="fill:none;stroke-width:1.2;stroke-linecap:butt;stroke-linejoin:miter;stroke:rgb(0%,0%,0%);stroke-opacity:1;stroke-miterlimit:10;" d="M 195.949219 109.484375 L 174.855469 124.851562 "/>
<path style="fill:none;stroke-width:1.2;stroke-linecap:butt;stroke-linejoin:miter;stroke:rgb(0%,0%,0%);stroke-opacity:1;stroke-miterlimit:10;" d="M 177.621094 150.800781 L 168.851562 175.378906 "/>
<path style="fill:none;stroke-width:1.2;stroke-linecap:butt;stroke-linejoin:miter;stroke:rgb(0%,0%,0%);stroke-opacity:1;stroke-miterlimit:10;" d="M 177.621094 150.800781 L 201.476562 161.382812 "/>
<path style="fill:none;stroke-width:1.2;stroke-linecap:butt;stroke-linejoin:miter;stroke:rgb(0%,0%,0%);stroke-opacity:1;stroke-miterlimit:10;" d="M 166.898438 177.75 L 176.96875 186.046875 "/>
<path style="fill:none;stroke-width:1.2;stroke-linecap:butt;stroke-linejoin:miter;stroke:rgb(100%,0%,0%);stroke-opacity:1;stroke-miterlimit:10;" d="M 176.96875 186.046875 L 187.039062 194.347656 "/>
<path style="fill:none;stroke-width:1.2;stroke-linecap:butt;stroke-linejoin:miter;stroke:rgb(0%,0%,0%);stroke-opacity:1;stroke-miterlimit:10;" d="M 170.804688 173.011719 L 180.875 181.308594 "/>
<path style="fill:none;stroke-width:1.2;stroke-linecap:butt;stroke-linejoin:miter;stroke:rgb(100%,0%,0%);stroke-opacity:1;stroke-miterlimit:10;" d="M 180.875 181.308594 L 190.941406 189.609375 "/>
<path style=" stroke:none;fill-rule:nonzero;fill:rgb(100%,100%,100%);fill-opacity:1;" d="M 184.992188 185.476562 L 193.992188 185.476562 L 193.992188 198.476562 L 184.992188 198.476562 Z M 184.992188 185.476562 "/>
<g style="fill:rgb(100%,0%,0%);fill-opacity:1;">
  <use xlink:href="#glyph0-1" x="184.992188" y="195.37793"/>
</g>
<path style="fill:none;stroke-width:1.2;stroke-linecap:butt;stroke-linejoin:miter;stroke:rgb(0%,0%,0%);stroke-opacity:1;stroke-miterlimit:10;" d="M 201.476562 161.382812 L 204.429688 174.09375 "/>
<path style="fill:none;stroke-width:1.2;stroke-linecap:butt;stroke-linejoin:miter;stroke:rgb(100%,0%,0%);stroke-opacity:1;stroke-miterlimit:10;" d="M 204.429688 174.09375 L 207.382812 186.800781 "/>
<path style="fill:none;stroke-width:1.2;stroke-linecap:butt;stroke-linejoin:miter;stroke:rgb(0%,0%,0%);stroke-opacity:1;stroke-miterlimit:10;" d="M 201.476562 161.382812 L 222.566406 146.015625 "/>
<path style="fill:none;stroke-width:1.2;stroke-linecap:butt;stroke-linejoin:miter;stroke:rgb(0%,0%,0%);stroke-opacity:1;stroke-miterlimit:10;" d="M 199.96875 154.882812 L 216.84375 142.589844 "/>
<path style=" stroke:none;fill-rule:nonzero;fill:rgb(100%,100%,100%);fill-opacity:1;" d="M 199.382812 180.300781 L 216.382812 180.300781 L 216.382812 193.300781 L 199.382812 193.300781 Z M 199.382812 180.300781 "/>
<g style="fill:rgb(100%,0%,0%);fill-opacity:1;">
  <use xlink:href="#glyph0-1" x="199.382812" y="190.202148"/>
  <use xlink:href="#glyph0-2" x="207.783203" y="190.202148"/>
</g>
<path style="fill:none;stroke-width:1.2;stroke-linecap:butt;stroke-linejoin:miter;stroke:rgb(0%,0%,0%);stroke-opacity:1;stroke-miterlimit:10;" d="M 222.566406 146.015625 L 219.804688 120.066406 "/>
<path style="fill:none;stroke-width:1.2;stroke-linecap:butt;stroke-linejoin:miter;stroke:rgb(0%,0%,0%);stroke-opacity:1;stroke-miterlimit:10;" d="M 219.804688 120.066406 L 230.347656 112.382812 "/>
<path style="fill:none;stroke-width:1.2;stroke-linecap:butt;stroke-linejoin:miter;stroke:rgb(100%,0%,0%);stroke-opacity:1;stroke-miterlimit:10;" d="M 230.347656 112.382812 L 240.894531 104.695312 "/>
<path style="fill:none;stroke-width:1.2;stroke-linecap:butt;stroke-linejoin:miter;stroke:rgb(0%,0%,0%);stroke-opacity:1;stroke-miterlimit:10;" d="M 219.804688 120.066406 L 195.949219 109.484375 "/>
<path style="fill:none;stroke-width:1.2;stroke-linecap:butt;stroke-linejoin:miter;stroke:rgb(0%,0%,0%);stroke-opacity:1;stroke-miterlimit:10;" d="M 214.929688 124.621094 L 195.84375 116.15625 "/>
<path style="fill:none;stroke-width:1.2;stroke-linecap:butt;stroke-linejoin:miter;stroke:rgb(100%,0%,0%);stroke-opacity:1;stroke-miterlimit:10;" d="M 240.894531 104.695312 L 252.824219 109.988281 "/>
<path style="fill:none;stroke-width:1.2;stroke-linecap:butt;stroke-linejoin:miter;stroke:rgb(0%,0%,0%);stroke-opacity:1;stroke-miterlimit:10;" d="M 252.824219 109.988281 L 264.75 115.277344 "/>
<path style=" stroke:none;fill-rule:nonzero;fill:rgb(100%,100%,100%);fill-opacity:1;" d="M 236.894531 98.195312 L 245.894531 98.195312 L 245.894531 111.195312 L 236.894531 111.195312 Z M 236.894531 98.195312 "/>
<g style="fill:rgb(100%,0%,0%);fill-opacity:1;">
  <use xlink:href="#glyph0-1" x="236.894531" y="108.09668"/>
</g>
</g>
</svg>

<svg xmlns="http://www.w3.org/2000/svg" xmlns:xlink="http://www.w3.org/1999/xlink" width="300pt" height="300pt" viewBox="0 0 300 300"><defs><symbol overflow="visible"><path d="M.547 1.938V-7.75h5.5v9.688zm.625-.61h4.266v-8.47H1.171zm0 0"/></symbol><symbol overflow="visible" id="a"><path d="M4.328-7.28c-.78 0-1.406.296-1.875.89-.46.585-.687 1.382-.687 2.39 0 1.012.226 1.813.687 2.406.47.586 1.094.875 1.875.875.79 0 1.414-.288 1.875-.874.457-.593.688-1.394.688-2.406 0-1.008-.23-1.805-.687-2.39-.46-.594-1.086-.89-1.875-.89zm0-.892c1.125 0 2.024.383 2.703 1.14C7.708-6.28 8.048-5.27 8.048-4c0 1.262-.34 2.273-1.016 3.03C6.353-.22 5.454.157 4.33.157S2.3-.22 1.625-.97c-.668-.75-1-1.757-1-3.03 0-1.27.332-2.28 1-3.03.676-.76 1.578-1.142 2.703-1.142zm0 0"/></symbol><symbol overflow="visible" id="b"><path d="M1.078-8.016h1.094v3.282H6.11v-3.282h1.077V0H6.11v-3.813H2.17V0H1.078zm0 0"/></symbol></defs><g><path fill="#fff" d="M0 0h300v300H0z"/><path d="M150.285 193.723l-12.34 4.234" stroke-width="1.2" stroke="#f00" stroke-miterlimit="10" fill="none"/><path d="M137.945 197.957l-12.343 4.234M168.852 175.38l-9.282 9.17" stroke-width="1.2" stroke="#000" stroke-miterlimit="10" fill="none"/><path d="M159.57 184.55l-9.285 9.173" stroke-width="1.2" stroke="#f00" stroke-miterlimit="10" fill="none"/><path d="M146.285 187.223h9v13h-9zm0 0" fill="#fff"/><use xlink:href="#a" x="146.285" y="197.124" fill="#f00"/><path d="M125.602 202.19l-25.915-3.08" stroke-width="1.2" stroke="#000" stroke-miterlimit="10" fill="none"/><path d="M125.602 202.19l-1.817 26.44 9.16-.978zm0 0"/><path d="M99.688 199.11l-22.012-14.02M77.676 185.09L63.93 162.91M81.52 179.637l-10.997-17.742M63.93 162.91l-2.766-25.95M61.527 133.91l-12.957-1.54" stroke-width="1.2" stroke="#000" stroke-miterlimit="10" fill="none"/><path d="M48.57 132.37l-12.957-1.538" stroke-width="1.2" stroke="#f00" stroke-miterlimit="10" fill="none"/><path d="M60.8 140.008l-12.956-1.54" stroke-width="1.2" stroke="#000" stroke-miterlimit="10" fill="none"/><path d="M47.844 138.47l-12.957-1.54" stroke-width="1.2" stroke="#f00" stroke-miterlimit="10" fill="none"/><path d="M61.164 136.96l8.77-24.577" stroke-width="1.2" stroke="#000" stroke-miterlimit="10" fill="none"/><path d="M26.25 127.38h9v13h-9zm0 0" fill="#fff"/><use xlink:href="#a" x="26.25" y="137.28" fill="#f00"/><path d="M69.934 112.383L88.5 94.043" stroke-width="1.2" stroke="#000" stroke-miterlimit="10" fill="none"/><path d="M88.5 94.043l-9.836-24.61-7.828 4.852zm0 0"/><path d="M88.5 94.043l24.684-8.47" stroke-width="1.2" stroke="#000" stroke-miterlimit="10" fill="none"/><path d="M57.75 65.36h17v13h-17zm0 0" fill="#fff"/><g fill="#f00"><use xlink:href="#b" x="57.75" y="75.261"/><use xlink:href="#a" x="65.774" y="75.261"/></g><path d="M113.184 85.574l25.914 3.078M139.098 88.652l22.01 14.02M161.11 102.672l13.745 22.18M174.855 124.852l2.766 25.95M181.238 126.797l2.21 20.758M195.95 109.484l-21.095 15.368M177.62 150.8l-8.768 24.58M177.62 150.8l23.857 10.583M166.898 177.75l10.07 8.297" stroke-width="1.2" stroke="#000" stroke-miterlimit="10" fill="none"/><path d="M176.97 186.047l10.07 8.3" stroke-width="1.2" stroke="#f00" stroke-miterlimit="10" fill="none"/><path d="M170.805 173.012l10.07 8.297" stroke-width="1.2" stroke="#000" stroke-miterlimit="10" fill="none"/><path d="M180.875 181.31l10.066 8.3" stroke-width="1.2" stroke="#f00" stroke-miterlimit="10" fill="none"/><path d="M184.992 185.477h9v13h-9zm0 0" fill="#fff"/><use xlink:href="#a" x="184.992" y="195.378" fill="#f00"/><path d="M201.477 161.383l2.953 12.71" stroke-width="1.2" stroke="#000" stroke-miterlimit="10" fill="none"/><path d="M204.43 174.094l2.953 12.707" stroke-width="1.2" stroke="#f00" stroke-miterlimit="10" fill="none"/><path d="M201.477 161.383l21.09-15.367M199.97 154.883l16.874-12.293" stroke-width="1.2" stroke="#000" stroke-miterlimit="10" fill="none"/><path d="M199.383 180.3h17v13h-17zm0 0" fill="#fff"/><g fill="#f00"><use xlink:href="#a" x="199.383" y="190.202"/><use xlink:href="#b" x="207.783" y="190.202"/></g><path d="M222.566 146.016l-2.76-25.95M219.805 120.066l10.543-7.683" stroke-width="1.2" stroke="#000" stroke-miterlimit="10" fill="none"/><path d="M230.348 112.383l10.547-7.688" stroke-width="1.2" stroke="#f00" stroke-miterlimit="10" fill="none"/><path d="M219.805 120.066l-23.856-10.582M214.93 124.62l-19.086-8.464" stroke-width="1.2" stroke="#000" stroke-miterlimit="10" fill="none"/><path d="M240.895 104.695l11.93 5.293" stroke-width="1.2" stroke="#f00" stroke-miterlimit="10" fill="none"/><path d="M252.824 109.988l11.926 5.29" stroke-width="1.2" stroke="#000" stroke-miterlimit="10" fill="none"/><path d="M236.895 98.195h9v13h-9zm0 0" fill="#fff"/><use xlink:href="#a" x="236.895" y="108.097" fill="#f00"/></g></svg>
